img/ourServices/ourServis-icon2.svg

<svg width="47" height="48" viewBox="0 0 47 48" fill="none" xmlns="http://www.w3.org/2000/svg">
<rect x="0.642822" width="46" height="48" rx="10" fill="#E0EAFF"/>
<path d="M32.6428 14.5H14.6428C14.3667 14.5 14.1428 14.7239 14.1428 15V26H33.1428V15C33.1428 14.7239 32.919 14.5 32.6428 14.5Z" stroke="#4883FF"/>
<path d="M35.1428 26.1176C35.419 26.1176 35.6428 25.8938 35.6428 25.6176V14.5C35.6412 13.12 34.5229 12.0017 33.1428 12H14.1428C12.7628 12.0017 11.6445 13.12 11.6428 14.5V28.5C11.6445 29.88 12.7628 30.9983 14.1428 31H19.6428V33.2325L18.3653 34.0825C18.2258 34.1756 18.1423 34.3323 18.1428 34.5V35C18.1428 35.5523 18.5905 36 19.1428 36H28.1428C28.6951 36 29.1428 35.5523 29.1428 35V34.5C29.1428 34.3329 29.0594 34.1768 28.9203 34.084L27.6428 33.2325V31.0882C27.6428 30.8121 27.419 30.5882 27.1428 30.5882C26.8667 30.5882 26.6428 30.8121 26.6428 31.0882V33.5C26.6428 33.6671 26.7263 33.8232 26.8653 33.916L28.1428 34.7675V35H19.1428V34.7675L20.4203 33.9175C20.5598 33.8244 20.6433 33.6677 20.6428 33.5V31H33.1428C34.5229 30.9983 35.6412 29.88 35.6428 28.5V26C35.6428 25.7239 35.419 25.5 35.1428 25.5H12.5252C12.249 25.5 12.0252 25.7239 12.0252 26C12.0252 26.2761 12.249 26.5 12.5252 26.5H34.6428V28.5C34.6428 29.3284 33.9713 30 33.1428 30H14.1428C13.3144 30 12.6428 29.3284 12.6428 28.5V14.5C12.6428 13.6716 13.3144 13 14.1428 13H33.1428C33.9713 13 34.6428 13.6716 34.6428 14.5V25.6176C34.6428 25.8938 34.8667 26.1176 35.1428 26.1176Z" fill="#4883FF" stroke="#4883FF" stroke-width="0.4"/>
<path d="M21.4963 16.3523C21.3011 16.1571 20.9846 16.1571 20.7893 16.3523L17.7893 19.3523C17.5941 19.5476 17.5941 19.8641 17.7893 20.0593L20.7893 23.0593C20.9855 23.2488 21.2974 23.2461 21.4902 23.0532C21.6831 22.8604 21.6858 22.5485 21.4963 22.3523L18.8498 19.7058L21.4963 17.0593C21.6915 16.8641 21.6915 16.5476 21.4963 16.3523Z" fill="#4883FF"/>
<path d="M25.7894 23.0594C25.9846 23.2546 26.3011 23.2546 26.4964 23.0594L29.4964 20.0594C29.6916 19.8641 29.6916 19.5476 29.4964 19.3524L26.4964 16.3524C26.3708 16.2224 26.1849 16.1703 26.0101 16.216C25.8353 16.2618 25.6988 16.3983 25.653 16.5731C25.6073 16.7479 25.6594 16.9338 25.7894 17.0594L28.4359 19.7059L25.7894 22.3524C25.5942 22.5476 25.5942 22.8641 25.7894 23.0594Z" fill="#4883FF"/>
</svg>

<svg width="47" height="48" fill="none" xmlns="http://www.w3.org/2000/svg"><rect x=".643" width="46" height="48" rx="10" fill="#E0EAFF"/><path d="M32.643 14.5h-18a.5.5 0 00-.5.5v11h19V15a.5.5 0 00-.5-.5z" stroke="#4883FF"/><path d="M35.143 26.118a.5.5 0 00.5-.5V14.5a2.503 2.503 0 00-2.5-2.5h-19a2.503 2.503 0 00-2.5 2.5v14a2.503 2.503 0 002.5 2.5h5.5v2.233l-1.278.85a.5.5 0 00-.222.417v.5a1 1 0 001 1h9a1 1 0 001-1v-.5a.5.5 0 00-.223-.416l-1.277-.852v-2.144a.5.5 0 10-1 0V33.5a.5.5 0 00.222.416l1.278.852V35h-9v-.233l1.277-.85a.5.5 0 00.223-.417V31h12.5a2.503 2.503 0 002.5-2.5V26a.5.5 0 00-.5-.5H12.525a.5.5 0 100 1h22.118v2a1.5 1.5 0 01-1.5 1.5h-19a1.5 1.5 0 01-1.5-1.5v-14a1.5 1.5 0 011.5-1.5h19a1.5 1.5 0 011.5 1.5v11.118a.5.5 0 00.5.5z" fill="#4883FF" stroke="#4883FF" stroke-width=".4"/><path d="M21.496 16.352a.5.5 0 00-.707 0l-3 3a.5.5 0 000 .707l3 3a.5.5 0 00.707-.707l-2.646-2.646 2.646-2.647a.5.5 0 000-.707zm4.294 6.708a.5.5 0 00.706 0l3-3a.5.5 0 000-.708l-3-3a.5.5 0 10-.707.707l2.647 2.647-2.647 2.646a.5.5 0 000 .707z" fill="#4883FF"/></svg>
